img/icones/redes/instagram.svg

<svg width="32" height="32" viewBox="0 0 32 32" fill="none" xmlns="http://www.w3.org/2000/svg">
<path d="M16 0C11.6533 0 11.1107 0.02 9.404 0.096C7.7 0.176 6.54 0.444 5.52 0.84C4.468 1.248 3.57467 1.796 2.68533 2.68533C1.796 3.57467 1.24667 4.46667 0.84 5.52C0.444 6.54 0.174667 7.7 0.096 9.404C0.016 11.1107 0 11.6533 0 16C0 20.3467 0.02 20.8893 0.096 22.596C0.176 24.2987 0.444 25.46 0.84 26.48C1.248 27.5307 1.796 28.4253 2.68533 29.3147C3.57467 30.2027 4.46667 30.7533 5.52 31.16C6.54133 31.5547 7.70133 31.8253 9.404 31.904C11.1107 31.984 11.6533 32 16 32C20.3467 32 20.8893 31.98 22.596 31.904C24.2987 31.824 25.46 31.5547 26.48 31.16C27.5307 30.752 28.4253 30.2027 29.3147 29.3147C30.2027 28.4253 30.7533 27.5347 31.16 26.48C31.5547 25.46 31.8253 24.2987 31.904 22.596C31.984 20.8893 32 20.3467 32 16C32 11.6533 31.98 11.1107 31.904 9.404C31.824 7.70133 31.5547 6.53867 31.16 5.52C30.752 4.468 30.2027 3.57467 29.3147 2.68533C28.4253 1.796 27.5347 1.24667 26.48 0.84C25.46 0.444 24.2987 0.174667 22.596 0.096C20.8893 0.016 20.3467 0 16 0ZM16 2.88C20.2707 2.88 20.78 2.90133 22.4667 2.97467C24.0267 3.048 24.8733 3.30667 25.436 3.528C26.1853 3.81733 26.716 4.164 27.2787 4.72267C27.8373 5.28267 28.184 5.81467 28.4733 6.564C28.692 7.12667 28.9533 7.97333 29.024 9.53333C29.1 11.2213 29.1173 11.728 29.1173 16C29.1173 20.272 29.0973 20.78 29.0187 22.4667C28.9373 24.0267 28.6773 24.8733 28.4573 25.436C28.1587 26.1853 27.8187 26.716 27.2587 27.2787C26.7 27.8373 26.16 28.184 25.4187 28.4733C24.8587 28.692 23.9987 28.9533 22.4387 29.024C20.74 29.1 20.24 29.1173 15.96 29.1173C11.6787 29.1173 11.1787 29.0973 9.48133 29.0187C7.92 28.9373 7.06 28.6773 6.5 28.4573C5.74133 28.1587 5.22 27.8187 4.66133 27.2587C4.1 26.7 3.74133 26.16 3.46133 25.4187C3.24133 24.8587 2.98267 23.9987 2.90133 22.4387C2.84133 20.7587 2.82 20.24 2.82 15.98C2.82 11.7187 2.84133 11.1987 2.90133 9.49867C2.98267 7.93867 3.24133 7.08 3.46133 6.52C3.74133 5.76 4.1 5.24 4.66133 4.67867C5.22 4.12 5.74133 3.76 6.5 3.48133C7.06 3.26 7.90133 3 9.46133 2.92C11.1613 2.86 11.6613 2.84 15.94 2.84L16 2.88ZM16 7.784C11.46 7.784 7.784 11.464 7.784 16C7.784 20.54 11.464 24.216 16 24.216C20.54 24.216 24.216 20.536 24.216 16C24.216 11.46 20.536 7.784 16 7.784ZM16 21.3333C13.0533 21.3333 10.6667 18.9467 10.6667 16C10.6667 13.0533 13.0533 10.6667 16 10.6667C18.9467 10.6667 21.3333 13.0533 21.3333 16C21.3333 18.9467 18.9467 21.3333 16 21.3333ZM26.4613 7.46C26.4613 8.52 25.6 9.38 24.5413 9.38C23.4813 9.38 22.6213 8.51867 22.6213 7.46C22.6213 6.40133 23.4827 5.54133 24.5413 5.54133C25.5987 5.54 26.4613 6.40133 26.4613 7.46Z" fill="url(#paint0_linear_12_170)"/>
<defs>
<linearGradient id="paint0_linear_12_170" x1="16" y1="0" x2="16" y2="32" gradientUnits="userSpaceOnUse">
<stop stop-color="#F5C20A"/>
<stop offset="1" stop-color="#F2A60C"/>
</linearGradient>
</defs>
</svg>

<svg width="32" height="32" fill="none" xmlns="http://www.w3.org/2000/svg"><path d="M16 0c-4.347 0-4.89.02-6.596.096C7.7.176 6.54.444 5.52.84a7.835 7.835 0 0 0-2.835 1.845A7.807 7.807 0 0 0 .84 5.52C.444 6.54.175 7.7.096 9.404.016 11.111 0 11.654 0 16c0 4.347.02 4.89.096 6.596.08 1.703.348 2.864.744 3.884a7.847 7.847 0 0 0 1.845 2.835A7.825 7.825 0 0 0 5.52 31.16c1.021.395 2.181.665 3.884.744 1.707.08 2.25.096 6.596.096 4.347 0 4.89-.02 6.596-.096 1.703-.08 2.864-.35 3.884-.744a7.864 7.864 0 0 0 2.835-1.845 7.814 7.814 0 0 0 1.845-2.835c.395-1.02.665-2.181.744-3.884.08-1.707.096-2.25.096-6.596 0-4.347-.02-4.89-.096-6.596-.08-1.703-.35-2.865-.744-3.884a7.853 7.853 0 0 0-1.845-2.835A7.796 7.796 0 0 0 26.48.84C25.46.444 24.299.175 22.596.096 20.889.016 20.346 0 16 0Zm0 2.88c4.27 0 4.78.021 6.467.095 1.56.073 2.406.332 2.969.553.75.29 1.28.636 1.843 1.195.558.56.905 1.092 1.194 1.841.219.563.48 1.41.551 2.97.076 1.687.093 2.194.093 6.466s-.02 4.78-.098 6.467c-.082 1.56-.342 2.406-.562 2.969-.298.75-.638 1.28-1.198 1.843a4.992 4.992 0 0 1-1.84 1.194c-.56.219-1.42.48-2.98.551-1.699.076-2.199.093-6.479.093-4.281 0-4.781-.02-6.479-.098-1.561-.082-2.421-.342-2.981-.562-.759-.298-1.28-.638-1.839-1.198a4.859 4.859 0 0 1-1.2-1.84c-.22-.56-.478-1.42-.56-2.98-.06-1.68-.081-2.199-.081-6.459 0-4.261.021-4.781.081-6.481.082-1.56.34-2.419.56-2.979.28-.76.639-1.28 1.2-1.841C5.22 4.12 5.741 3.76 6.5 3.48 7.06 3.26 7.901 3 9.461 2.92c1.7-.06 2.2-.08 6.479-.08l.06.04Zm0 4.904A8.215 8.215 0 0 0 7.784 16c0 4.54 3.68 8.216 8.216 8.216 4.54 0 8.216-3.68 8.216-8.216 0-4.54-3.68-8.216-8.216-8.216Zm0 13.55A5.332 5.332 0 0 1 10.667 16 5.332 5.332 0 0 1 16 10.667 5.332 5.332 0 0 1 21.333 16 5.332 5.332 0 0 1 16 21.333ZM26.461 7.46c0 1.06-.861 1.92-1.92 1.92-1.06 0-1.92-.861-1.92-1.92a1.921 1.921 0 0 1 3.84 0Z" fill="url(#a)"/><defs><linearGradient id="a" x1="16" y1="0" x2="16" y2="32" gradientUnits="userSpaceOnUse"><stop stop-color="#F5C20A"/><stop offset="1" stop-color="#F2A60C"/></linearGradient></defs></svg>
